X: 34398
T: Richard Cusack
R: jig
M: 6/8
K: Dmixolydian
A|"D"dcd def|"C"c2c cBA|"G"B2B BGB|"Am"cAG A2A|
"D"d2d def|"C"c2c cAc|"G"BGB "Am"A2G|"D"FDC D2:|
z|"D"A2F "A"AB^c|"D"dAG FEF|def "G"gab|"C"c'ag "Am"age|
"D"d2d def|"C"c2c cAc|"G"BGB "A7"ABG|"D"FDC D2:|

